_includes/icons/color-upload-to-cloud.svg

<svg fill="#666" height="50" viewBox="0 0 48 48" width="50" xmlns="http://www.w3.org/2000/svg"><path d="m38 17c0-.199219 0-.300781 0-.5 0-3.601562-2.898437-6.5-6.5-6.5-1.699219 0-3.199219.699219-4.398437 1.699219-1.402344-2.800781-4.300782-4.699219-7.601563-4.699219-4.699219 0-8.5 3.800781-8.5 8.5 0 .5.101563 1 .101563 1.5-3.402344.398438-6.101563 3.300781-6.101563 6.898438 0 3.902343 3.101563 7 7 7h.101563c.296875.101562.597656.101562.898437.101562h25c3.898438 0 7-3.101562 7-7 0-3.898437-3.101562-7-7-7z" fill="#bbdefb"/><path d="m33.101563 27-8-9-8 9h4.898437v14h6v-14z" fill="#3f51b5"/></svg>

<svg xmlns="http://www.w3.org/2000/svg" viewBox="0 0 48 48" width="50" height="50" fill="#666"><path d="M 38 17 C 38 16.800781 38 16.699219 38 16.5 C 38 12.898438 35.101563 10 31.5 10 C 29.800781 10 28.300781 10.699219 27.101563 11.699219 C 25.699219 8.898438 22.800781 7 19.5 7 C 14.800781 7 11 10.800781 11 15.5 C 11 16 11.101563 16.5 11.101563 17 C 7.699219 17.398438 5 20.300781 5 23.898438 C 5 27.800781 8.101563 30.898438 12 30.898438 C 12 30.898438 12.101563 30.898438 12.101563 30.898438 C 12.398438 31 12.699219 31 13 31 L 38 31 C 41.898438 31 45 27.898438 45 24 C 45 20.101563 41.898438 17 38 17 Z" fill="#bbdefb"/><path d="M 33.101563 27 L 25.101563 18 L 17.101563 27 L 22 27 L 22 41 L 28 41 L 28 27 Z" fill="#3f51b5"/></svg>
